e2e/fixtures/warm.cube
TITLE "Warm Test"
LUT_3D_SIZE 5
DOMAIN_MIN 0.0 0.0 0.0
DOMAIN_MAX 1.0 1.0 1.0
0.000000 0.000000 0.000000
0.275000 0.000000 0.000000
0.550000 0.000000 0.000000
0.825000 0.000000 0.000000
1.000000 0.000000 0.000000
0.000000 0.250000 0.000000
0.275000 0.250000 0.000000
0.550000 0.250000 0.000000
0.825000 0.250000 0.000000
1.000000 0.250000 0.000000
0.000000 0.500000 0.000000
0.275000 0.500000 0.000000
0.550000 0.500000 0.000000
0.825000 0.500000 0.000000
1.000000 0.500000 0.000000
0.000000 0.750000 0.000000
0.275000 0.750000 0.000000
0.550000 0.750000 0.000000
0.825000 0.750000 0.000000
1.000000 0.750000 0.000000
0.000000 1.000000 0.000000
0.275000 1.000000 0.000000
0.550000 1.000000 0.000000
0.825000 1.000000 0.000000
1.000000 1.000000 0.000000
0.000000 0.000000 0.225000
0.275000 0.000000 0.225000
0.550000 0.000000 0.225000
0.825000 0.000000 0.225000
1.000000 0.000000 0.225000
0.000000 0.250000 0.225000
0.275000 0.250000 0.225000
0.550000 0.250000 0.225000
0.825000 0.250000 0.225000
1.000000 0.250000 0.225000
0.000000 0.500000 0.225000
0.275000 0.500000 0.225000
0.550000 0.500000 0.225000
0.825000 0.500000 0.225000
1.000000 0.500000 0.225000
0.000000 0.750000 0.225000
0.275000 0.750000 0.225000
0.550000 0.750000 0.225000
0.825000 0.750000 0.225000
1.000000 0.750000 0.225000
0.000000 1.000000 0.225000
0.275000 1.000000 0.225000
0.550000 1.000000 0.225000
0.825000 1.000000 0.225000
1.000000 1.000000 0.225000
0.000000 0.000000 0.450000
0.275000 0.000000 0.450000
0.550000 0.000000 0.450000
0.825000 0.000000 0.450000
1.000000 0.000000 0.450000
0.000000 0.250000 0.450000
0.275000 0.250000 0.450000
0.550000 0.250000 0.450000
0.825000 0.250000 0.450000
1.000000 0.250000 0.450000
0.000000 0.500000 0.450000
0.275000 0.500000 0.450000
0.550000 0.500000 0.450000
0.825000 0.500000 0.450000
1.000000 0.500000 0.450000
0.000000 0.750000 0.450000
0.275000 0.750000 0.450000
0.550000 0.750000 0.450000
0.825000 0.750000 0.450000
1.000000 0.750000 0.450000
0.000000 1.000000 0.450000
0.275000 1.000000 0.450000
0.550000 1.000000 0.450000
0.825000 1.000000 0.450000
1.000000 1.000000 0.450000
0.000000 0.000000 0.675000
0.275000 0.000000 0.675000
0.550000 0.000000 0.675000
0.825000 0.000000 0.675000
1.000000 0.000000 0.675000
0.000000 0.250000 0.675000
0.275000 0.250000 0.675000
0.550000 0.250000 0.675000
0.825000 0.250000 0.675000
1.000000 0.250000 0.675000
0.000000 0.500000 0.675000
0.275000 0.500000 0.675000
0.550000 0.500000 0.675000
0.825000 0.500000 0.675000
1.000000 0.500000 0.675000
0.000000 0.750000 0.675000
0.275000 0.750000 0.675000
0.550000 0.750000 0.675000
0.825000 0.750000 0.675000
1.000000 0.750000 0.675000
0.000000 1.000000 0.675000
0.275000 1.000000 0.675000
0.550000 1.000000 0.675000
0.825000 1.000000 0.675000
1.000000 1.000000 0.675000
0.000000 0.000000 0.900000
0.275000 0.000000 0.900000
0.550000 0.000000 0.900000
0.825000 0.000000 0.900000
1.000000 0.000000 0.900000
0.000000 0.250000 0.900000
0.275000 0.250000 0.900000
0.550000 0.250000 0.900000
0.825000 0.250000 0.900000
1.000000 0.250000 0.900000
0.000000 0.500000 0.900000
0.275000 0.500000 0.900000
0.550000 0.500000 0.900000
0.825000 0.500000 0.900000
1.000000 0.500000 0.900000
0.000000 0.750000 0.900000
0.275000 0.750000 0.900000
0.550000 0.750000 0.900000
0.825000 0.750000 0.900000
1.000000 0.750000 0.900000
0.000000 1.000000 0.900000
0.275000 1.000000 0.900000
0.550000 1.000000 0.900000
0.825000 1.000000 0.900000
1.000000 1.000000 0.900000
